X:843
T:Glach Na Cudain
C:Joe Buchanan's Scottish Tome - Page 407.3
I:407 3
Z:Carl Allison
R:Strathspey
L:1/8
M:4/4
K:D
"D"d2 (f>e) (A>B)    | d2 (f>d) (a>d)(f<a) | d2 (f>e) d2 ('(3efg) | "A"(a>e)"D"(f>d) "A"(e>A) (c<e) :|
"D"(d>f)(A>f) (d>f)(a>f) | d>(fA>a) f>d(f<a) | (d>f)(A>f) (d>f)(a>f) | "A"(g>e)"D"(f>d) "A"(e>A) (c<e) |
"D"(d>f)(A>f) (d>f)(a>f) | d>(fA>a) f>d(f<a) | "G"('(3agf) "Em"(g>e) "D"(f>d)"A"(ec) | "G"(d>B)(G>f) "A"(e>A) (c<e) |]
